X:1
T:Title
%%score { ( 1 3 ) | ( 2 4 ) }
L:1/8
Q:1/4=94
M:4/4
K:Eb
V:1 treble nm="Grand Piano"
V:3 treble 
V:2 bass 
V:4 bass 
V:1
 E2 EG B3 B | c2 [Ad]2 [Ge]3 [GB] | [Ge]2 [B,EB]2 [EG]3 [A,DF] | [G,E]2 [B,DF]2 G4 | %4
w: Asa~Hull * * * *||||
 E2 EG B3 [B,EG] | [A,EA]2 [EAc]2 [EGB]3 [EGB] | .[Ec]2 z2 z4 | [B,EG]2 [A,DF]2 [G,E]4 |] %8
w: ||||
V:2
 [E,G,B,]2 [E,G,B,][E,B,E] [E,G,E]3 [G,B,E] | [A,E]2 [F,B,]2 [E,B,]3 [E,B,] | [E,B,]2 G,2 B,3 B,, | %3
 C,2 B,,2 [E,B,E]4 | [E,G,B,]2 [E,G,B,][E,B,E] [E,G,E]3 _D, | C,2 A,,2 E,3 E, | z C2 A, z E2 A,, | %7
 B,,2 B,,2 E,4 |] %8
V:3
 x8 | x8 | x8 | x8 | x8 | x8 | A- [Ae]2 [Ec] [CEA] c2 [CFA] | x8 |] %8
V:4
 x8 | x8 | x8 | x8 | x8 | x8 | A,4 A,,4 | x8 |] %8

